X:1
T: Morpeth Rant
C: R-8
C: English
M: C|
Z:
R: reel
K: D
"D"d2AG FDFA| "G"BGBd "A"cAce| "D"f2fd "G"gfed| "A"c2e2 e2(3ABc|
"D"d2AG FDFA| "G"BGBd "A"cAce| "D"f2fd "G"gfed| "A"A2d2 "D"d2A2 :|
|:\
"D"dfaf dfaf| "G"gfef g2ef| "A"gfed cdeg| "D"fefg f2fe |
"D"dfaf dfaf| "G"gfef g2ef| "A"gfed caag| "D"f2d2 d2A2 :|
%
